X: 7956
T: Condon's Frolics
R: jig
M: 6/8
K: Adorian
|:EA,B, {D}C{B,}CD|EDC {B,D}B,A,G,|EA,B, C2D|{G}E{D}ED EAG|
EA,B, C2D|EDC B,DB,|G,B,D GDB,|A,{C}A,{G,}A, A,B,D:|
|:EAA EFG|DEC B,A,G,|C{D}C{B,}C DCD|{G}E{D}ED EFG|
EAA EFG|DEC B,{D}B,{A,}B,|G,B,D GDB,|A,B,A, {C}A,{G,}A,D:|

